assets/icons/video-quality.svg

<svg width="20" height="20" viewBox="0 0 20 20" fill="none" xmlns="http://www.w3.org/2000/svg">
<path d="M13.6003 6H10.5337V14H13.6003C14.0599 13.9995 14.5004 13.8167 14.8254 13.4917C15.1503 13.1668 15.3331 12.7262 15.3337 12.2667V7.73333C15.3331 7.27379 15.1503 6.83321 14.8254 6.50827C14.5004 6.18332 14.0599 6.00053 13.6003 6ZM14.267 12.2667C14.2668 12.4434 14.1965 12.6129 14.0715 12.7378C13.9465 12.8628 13.7771 12.9331 13.6003 12.9333H11.6003V7.06667H13.6003C13.7771 7.06687 13.9465 7.13717 14.0715 7.26215C14.1965 7.38713 14.2668 7.55658 14.267 7.73333V12.2667ZM8.40033 9.46667H5.73366V6H4.66699V14H5.73366V10.5333H8.40033V14H9.46699V6H8.40033V9.46667Z" fill="currentColor"/>
<path d="M16.9333 2H3.06667C2.78387 2.00032 2.51274 2.1128 2.31277 2.31277C2.1128 2.51274 2.00032 2.78387 2 3.06667V16.9333C2.00032 17.2161 2.1128 17.4873 2.31277 17.6872C2.51274 17.8872 2.78387 17.9997 3.06667 18H16.9333C17.2161 17.9997 17.4873 17.8872 17.6872 17.6872C17.8872 17.4873 17.9997 17.2161 18 16.9333V3.06667C17.9997 2.78387 17.8872 2.51274 17.6872 2.31277C17.4873 2.1128 17.2161 2.00032 16.9333 2ZM16.9333 16.9333H3.06667V3.06667H16.9333L16.934 16.9333H16.9333Z" fill="currentColor"/>
</svg>

<svg xmlns="http://www.w3.org/2000/svg" width="20" height="20" fill="none" viewBox="0 0 20 20"><path fill="currentColor" d="M13.6 6h-3.066v8H13.6a1.735 1.735 0 0 0 1.734-1.733V7.733A1.736 1.736 0 0 0 13.6 6m.667 6.267a.667.667 0 0 1-.667.666h-2V7.067h2a.667.667 0 0 1 .667.666zM8.4 9.467H5.734V6H4.667v8h1.067v-3.467H8.4V14h1.067V6H8.4z"/><path fill="currentColor" d="M16.933 2H3.067A1.07 1.07 0 0 0 2 3.067v13.866A1.07 1.07 0 0 0 3.067 18h13.866A1.07 1.07 0 0 0 18 16.933V3.067A1.07 1.07 0 0 0 16.933 2m0 14.933H3.067V3.067h13.866l.001 13.866"/></svg>
